SVG_Azure_All/Usage and Quota.svg

<?xml version="1.0" encoding="UTF-8" standalone="no"?>
<!-- Generated by Microsoft Visio, SVG Export Usage and Quota.svg Page-1 -->

<svg
   xmlns:dc="http://purl.org/dc/elements/1.1/"
   xmlns:cc="http://creativecommons.org/ns#"
   xmlns:rdf="http://www.w3.org/1999/02/22-rdf-syntax-ns#"
   xmlns:svg="http://www.w3.org/2000/svg"
   xmlns="http://www.w3.org/2000/svg"
   xmlns:sodipodi="http://sodipodi.sourceforge.net/DTD/sodipodi-0.dtd"
   xmlns:inkscape="http://www.inkscape.org/namespaces/inkscape"
   width="0.78736007in"
   height="0.66927546in"
   viewBox="0 0 56.689993 48.187904"
   xml:space="preserve"
   class="st7"
   version="1.1"
   id="svg94"
   sodipodi:docname="Usage and Quota.svg"
   style="font-size:12px;overflow:visible;color-interpolation-filters:sRGB;fill:none;fill-rule:evenodd;stroke-linecap:square;stroke-miterlimit:3"
   inkscape:version="0.92.5 (2060ec1f9f, 2020-04-08)"><metadata
   id="metadata100"><rdf:RDF><cc:Work
       rdf:about=""><dc:format>image/svg+xml</dc:format><dc:type
         rdf:resource="http://purl.org/dc/dcmitype/StillImage" /></cc:Work></rdf:RDF></metadata><defs
   id="defs98" /><sodipodi:namedview
   pagecolor="#ffffff"
   bordercolor="#666666"
   borderopacity="1"
   objecttolerance="10"
   gridtolerance="10"
   guidetolerance="10"
   inkscape:pageopacity="0"
   inkscape:pageshadow="2"
   inkscape:window-width="640"
   inkscape:window-height="480"
   id="namedview96"
   showgrid="false"
   inkscape:zoom="1.8741153"
   inkscape:cx="37.795223"
   inkscape:cy="17.608988"
   inkscape:window-x="0"
   inkscape:window-y="0"
   inkscape:window-maximized="0"
   inkscape:current-layer="svg94" />
	<style
   type="text/css"
   id="style2">
	<![CDATA[
		.st1 {fill:#e5e5e5;stroke:none;stroke-linecap:butt;stroke-width:12.24}
		.st2 {fill:#57a300;stroke:none;stroke-linecap:butt;stroke-width:12.24}
		.st3 {fill:#ffffff;fill-opacity:0.6;stroke:none;stroke-linecap:butt;stroke-width:12.24}
		.st4 {fill:#7a7a7a;stroke:none;stroke-linecap:butt;stroke-width:12.24}
		.st5 {fill:#ffffff;fill-opacity:0.7;stroke:none;stroke-linecap:butt;stroke-width:12.24}
		.st6 {fill:#1e1e1e;fill-opacity:0.2;stroke:none;stroke-linecap:butt;stroke-width:12.24}
		.st7 {fill:none;fill-rule:evenodd;font-size:12px;overflow:visible;stroke-linecap:square;stroke-miterlimit:3}
	]]>
	</style>

	<g
   id="g92"
   transform="translate(-12.24,-12.241203)">
		<title
   id="title4">Page-1</title>
		<g
   id="group662-1"
   transform="translate(12.24,-34.0157)">
			<title
   id="title6">Usage and Quota</title>
			<g
   id="group663-2">
				<title
   id="title8">g36</title>
				<g
   id="shape664-3">
					<title
   id="title10">path4</title>
					<path
   d="M 0,82.97 H 56.69 V 94.44 H 0 Z"
   class="st1"
   id="path12"
   inkscape:connector-curvature="0"
   style="fill:#e5e5e5;stroke:none;stroke-width:12.23999977;stroke-linecap:butt" />
				</g>
				<g
   id="shape665-5"
   transform="translate(2.26772,-2.29346)">
					<title
   id="title15">path6</title>
					<path
   d="m 0,87.63 h 52.16 v 6.81 H 0 Z"
   class="st2"
   id="path17"
   inkscape:connector-curvature="0"
   style="fill:#57a300;stroke:none;stroke-width:12.23999977;stroke-linecap:butt" />
				</g>
				<g
   id="shape666-7"
   transform="translate(22.6772,-2.2946)">
					<title
   id="title20">path8</title>
					<path
   d="m 0,87.56 h 31.75 v 6.88 H 0 Z"
   class="st3"
   id="path22"
   inkscape:connector-curvature="0"
   style="fill:#ffffff;fill-opacity:0.6;stroke:none;stroke-width:12.23999977;stroke-linecap:butt" />
				</g>
				<g
   id="shape667-9"
   transform="translate(20.4094)">
					<title
   id="title25">path10</title>
					<rect
   x="0"
   y="82.9729"
   width="4.53543"
   height="11.4719"
   class="st4"
   id="rect27"
   style="fill:#7a7a7a;stroke:none;stroke-width:12.23999977;stroke-linecap:butt" />
				</g>
				<g
   id="shape668-11"
   transform="translate(20.4094,-0.0011473)">
					<title
   id="title30">path12</title>
					<rect
   x="0"
   y="82.971703"
   width="2.26772"
   height="11.473"
   class="st5"
   id="rect32"
   style="fill:#ffffff;fill-opacity:0.7;stroke:none;stroke-width:12.23999977;stroke-linecap:butt" />
				</g>
				<g
   id="shape669-13"
   transform="translate(0,-18.3557)">
					<title
   id="title35">path14</title>
					<path
   d="M 0,82.97 H 56.69 V 94.44 H 0 Z"
   class="st1"
   id="path37"
   inkscape:connector-curvature="0"
   style="fill:#e5e5e5;stroke:none;stroke-width:12.23999977;stroke-linecap:butt" />
				</g>
				<g
   id="shape670-15"
   transform="translate(2.26772,-20.6514)">
					<title
   id="title40">path16</title>
					<path
   d="m 0,87.63 h 52.16 v 6.81 H 0 Z"
   class="st2"
   id="path42"
   inkscape:connector-curvature="0"
   style="fill:#57a300;stroke:none;stroke-width:12.23999977;stroke-linecap:butt" />
				</g>
				<g
   id="shape671-17"
   transform="translate(40.8189,-20.6572)">
					<title
   id="title45">path18</title>
					<rect
   x="0"
   y="87.557503"
   width="13.6063"
   height="6.8872499"
   class="st3"
   id="rect47"
   style="fill:#ffffff;fill-opacity:0.6;stroke:none;stroke-width:12.23999977;stroke-linecap:butt" />
				</g>
				<g
   id="shape672-19"
   transform="translate(38.5512,-18.3568)">
					<title
   id="title50">path20</title>
					<rect
   x="0"
   y="82.9729"
   width="4.53543"
   height="11.4719"
   class="st4"
   id="rect52"
   style="fill:#7a7a7a;stroke:none;stroke-width:12.23999977;stroke-linecap:butt" />
				</g>
				<g
   id="shape673-21"
   transform="translate(38.5512,-18.358)">
					<title
   id="title55">path22</title>
					<rect
   x="0"
   y="82.971703"
   width="2.26772"
   height="11.473"
   class="st5"
   id="rect57"
   style="fill:#ffffff;fill-opacity:0.7;stroke:none;stroke-width:12.23999977;stroke-linecap:butt" />
				</g>
				<g
   id="shape674-23"
   transform="translate(0,-36.7125)">
					<title
   id="title60">path24</title>
					<path
   d="M 0,82.97 H 56.69 V 94.44 H 0 Z"
   class="st1"
   id="path62"
   inkscape:connector-curvature="0"
   style="fill:#e5e5e5;stroke:none;stroke-width:12.23999977;stroke-linecap:butt" />
				</g>
				<g
   id="shape675-25"
   transform="translate(2.26772,-39.0083)">
					<title
   id="title65">path26</title>
					<path
   d="m 0,87.63 h 52.16 v 6.81 H 0 Z"
   class="st2"
   id="path67"
   inkscape:connector-curvature="0"
   style="fill:#57a300;stroke:none;stroke-width:12.23999977;stroke-linecap:butt" />
				</g>
				<g
   id="shape676-27"
   transform="translate(22.6772,-39.0071)">
					<title
   id="title70">path28</title>
					<path
   d="m 0,87.56 h 31.75 v 6.88 H 0 Z"
   class="st3"
   id="path72"
   inkscape:connector-curvature="0"
   style="fill:#ffffff;fill-opacity:0.6;stroke:none;stroke-width:12.23999977;stroke-linecap:butt" />
				</g>
				<g
   id="shape677-29"
   transform="translate(20.4094,-36.7137)">
					<title
   id="title75">path30</title>
					<rect
   x="0"
   y="82.9729"
   width="4.53543"
   height="11.4719"
   class="st4"
   id="rect77"
   style="fill:#7a7a7a;stroke:none;stroke-width:12.23999977;stroke-linecap:butt" />
				</g>
				<g
   id="shape678-31"
   transform="translate(20.4094,-36.7148)">
					<title
   id="title80">path32</title>
					<rect
   x="0"
   y="82.971703"
   width="2.26772"
   height="11.473"
   class="st5"
   id="rect82"
   style="fill:#ffffff;fill-opacity:0.7;stroke:none;stroke-width:12.23999977;stroke-linecap:butt" />
				</g>
				<g
   id="shape679-33"
   transform="translate(24.9449,-0.0011473)">
					<title
   id="title85">path34</title>
					<path
   d="M 0,82.97 H 2.27 V 94.44 H 0 Z M 0,46.29 H 2.27 V 57.77 H 0 Z m 18.14,18.32 h 2.27 v 11.47 h -2.27 z"
   class="st6"
   id="path87"
   inkscape:connector-curvature="0"
   style="fill:#1e1e1e;fill-opacity:0.2;stroke:none;stroke-width:12.23999977;stroke-linecap:butt" />
				</g>
			</g>
		</g>
	</g>
</svg>

<?xml version="1.0" encoding="UTF-8" standalone="no"?>
<!DOCTYPE svg PUBLIC "-//W3C//DTD SVG 1.1//EN" "http://www.w3.org/Graphics/SVG/1.1/DTD/svg11.dtd">
<!-- Generated by Microsoft Visio, SVG Export Usage and Quota.svg Page-1 -->
<svg xmlns="http://www.w3.org/2000/svg" xmlns:xlink="http://www.w3.org/1999/xlink" xmlns:ev="http://www.w3.org/2001/xml-events"
		width="1.1274in" height="1.31173in" viewBox="0 0 81.1729 94.4447" xml:space="preserve" color-interpolation-filters="sRGB"
		class="st7">
	<style type="text/css">
	<![CDATA[
		.st1 {fill:#e5e5e5;stroke:none;stroke-linecap:butt;stroke-width:12.24}
		.st2 {fill:#57a300;stroke:none;stroke-linecap:butt;stroke-width:12.24}
		.st3 {fill:#ffffff;fill-opacity:0.6;stroke:none;stroke-linecap:butt;stroke-width:12.24}
		.st4 {fill:#7a7a7a;stroke:none;stroke-linecap:butt;stroke-width:12.24}
		.st5 {fill:#ffffff;fill-opacity:0.7;stroke:none;stroke-linecap:butt;stroke-width:12.24}
		.st6 {fill:#1e1e1e;fill-opacity:0.2;stroke:none;stroke-linecap:butt;stroke-width:12.24}
		.st7 {fill:none;fill-rule:evenodd;font-size:12px;overflow:visible;stroke-linecap:square;stroke-miterlimit:3}
	]]>
	</style>

	<g>
		<title>Page-1</title>
		<g id="group647-1" transform="translate(12.24,-34.0157)">
			<title>Usage and Quota</title>
			<g id="group648-2">
				<title>g36</title>
				<g id="shape649-3">
					<title>path4</title>
					<path d="M0 82.97 L56.69 82.97 L56.69 94.44 L0 94.44 L0 82.97 Z" class="st1"/>
				</g>
				<g id="shape650-5" transform="translate(2.26772,-2.29346)">
					<title>path6</title>
					<path d="M0 87.63 L52.16 87.63 L52.16 94.44 L0 94.44 L0 87.63 Z" class="st2"/>
				</g>
				<g id="shape651-7" transform="translate(22.6772,-2.2946)">
					<title>path8</title>
					<path d="M0 87.56 L31.75 87.56 L31.75 94.44 L0 94.44 L0 87.56 Z" class="st3"/>
				</g>
				<g id="shape652-9" transform="translate(20.4094,-2.41585E-13)">
					<title>path10</title>
					<rect x="0" y="82.9729" width="4.53543" height="11.4719" class="st4"/>
				</g>
				<g id="shape653-11" transform="translate(20.4094,-0.0011473)">
					<title>path12</title>
					<rect x="0" y="82.9717" width="2.26772" height="11.473" class="st5"/>
				</g>
				<g id="shape654-13" transform="translate(0,-18.3557)">
					<title>path14</title>
					<path d="M0 82.97 L56.69 82.97 L56.69 94.44 L0 94.44 L0 82.97 Z" class="st1"/>
				</g>
				<g id="shape655-15" transform="translate(2.26772,-20.6514)">
					<title>path16</title>
					<path d="M0 87.63 L52.16 87.63 L52.16 94.44 L0 94.44 L0 87.63 Z" class="st2"/>
				</g>
				<g id="shape656-17" transform="translate(40.8189,-20.6572)">
					<title>path18</title>
					<rect x="0" y="87.5575" width="13.6063" height="6.88725" class="st3"/>
				</g>
				<g id="shape657-19" transform="translate(38.5512,-18.3568)">
					<title>path20</title>
					<rect x="0" y="82.9729" width="4.53543" height="11.4719" class="st4"/>
				</g>
				<g id="shape658-21" transform="translate(38.5512,-18.358)">
					<title>path22</title>
					<rect x="0" y="82.9717" width="2.26772" height="11.473" class="st5"/>
				</g>
				<g id="shape659-23" transform="translate(0,-36.7125)">
					<title>path24</title>
					<path d="M0 82.97 L56.69 82.97 L56.69 94.44 L0 94.44 L0 82.97 Z" class="st1"/>
				</g>
				<g id="shape660-25" transform="translate(2.26772,-39.0083)">
					<title>path26</title>
					<path d="M0 87.63 L52.16 87.63 L52.16 94.44 L0 94.44 L0 87.63 Z" class="st2"/>
				</g>
				<g id="shape661-27" transform="translate(22.6772,-39.0071)">
					<title>path28</title>
					<path d="M0 87.56 L31.75 87.56 L31.75 94.44 L0 94.44 L0 87.56 Z" class="st3"/>
				</g>
				<g id="shape662-29" transform="translate(20.4094,-36.7137)">
					<title>path30</title>
					<rect x="0" y="82.9729" width="4.53543" height="11.4719" class="st4"/>
				</g>
				<g id="shape663-31" transform="translate(20.4094,-36.7148)">
					<title>path32</title>
					<rect x="0" y="82.9717" width="2.26772" height="11.473" class="st5"/>
				</g>
				<g id="shape664-33" transform="translate(24.9449,-0.0011473)">
					<title>path34</title>
					<path d="M0 82.97 L2.27 82.97 L2.27 94.44 L0 94.44 L0 82.97 ZM0 46.29 L2.27 46.29 L2.27 57.77 L0 57.77 L0 46.29
								 ZM18.14 64.61 L20.41 64.61 L20.41 76.08 L18.14 76.08 L18.14 64.61 Z" class="st6"/>
				</g>
			</g>
		</g>
	</g>
</svg>
